X: 4786
T: Boys Of Portaferry, The
R: reel
M: 4/4
K: Gmajor
|:G2 BG AcBA|G3F GE D2|G2 BG ABce|dBge dcBA|
G2 BG AcBA|G3F GE D2|G3B A3B|1 dBAB G3D:|2 dBAB G3z||
(3Bcd gd edgd|(3Bcd gd e3d|(3Bcd gd edef|(3gfe dB c2 BA|
(3Bcd gd edgd|(3Bcd gd e3d|(3Bcd gd edef|(3gfe dB c2 BA:|

